!!!!SEGMENT: pl-wtm--r-1427--003_stefani-jozef--no-19-graduale.krn
!!!cenid: 18xx:2439
!!!COM: Stefani, Józef
!!!COM-rismID: pe30024097
!!!CDT: 1800/04/16-1876/03/19
!!!CNT: Polish
!!!OPR: No. 19
!!!OTL: Graduale
!!!OMV: 003
!!!PDT:
!!!AGN: Sacred; Mass
!!!SMS-siglum: PL-Wtm
!!!SMS-shelfmark: R 1427
!!!SMS-shelfwork: 001-003 M
!!!SMS-variant:
!!!SMS-altvar:
!!!NIFC-rismSourceID: 1001116126
!!!NIFC-islandoraID:
!!!URL-pdf-islandora:
!!!URL-scan:
!!!ONB-nifc: UWAGA: części Mszy: 1. Kyrie, 2. Gloria, 3. Graduale, 4. Credo, 5. Offertorium.
!!!OMD: Andante.
!!!AIN: 1 organ 1 vox
!!!key:
**kern	**kern	**kern	**text	**text
*part2	*part2	*part1	*part1	*part1
*staff3	*staff2	*staff1	*staff1	*staff1
*Iorgan	*Iorgan	*Ivox	*	*
*I"Organy	*I"Organy	*I"Głos	*	*
*>[A,A1,A,A1,A,A2]	*>[A,A1,A,A1,A,A2]	*>[A,A1,A,A1,A,A2]	*>[A,A1,A,A1,A,A2]	*>[A,A1,A,A1,A,A2]
*>A	*>A	*>A	*>A	*>A
*clefF4	*clefG2	*clefG2	*	*
*k[b-]	*k[b-]	*k[b-]	*	*
*F:	*F:	*F:	*	*
*M3/4	*M3/4	*M3/4	*	*
=1!|:	=1!|:	=1!|:	=1!|:	=1!|:
*all\right	*	*all\right	*	*
4C\	4c< 4G< 4E</	4r	.	.
4D\	4B-< 4F</	4r	.	.
4E\	4G</	4g/	1.) Po-	2.) U-
=2	=2	=2	=2	=2
*2\right	*	*	*	*
2F\	2A</	2a/	-wstań-	-znaj-
4E\	4c< 4G</	4cc\	-cie	-cie
=3	=3	=3	=3	=3
2D\	4f 4A</	4ff\	świa-	pra-
.	4A< 4F</	4a\	-tło-	-wdę
4D-X\	4B<- 4F</	4b-\	-ści	wtem
=4	=4	=4	=4	=4
2.C\	2G< 2F</	(>2g/	sy-	sło-
.	4c< 4E</	4cc\)	.	.
=5	=5	=5	=5	=5
2FF\	2A< 2F</	2a/	-ny	-wie
4FF\	4A< 4F</	4a/	Po-	My
!!LO:LB:g=original
=6	=6	=6	=6	=6
*	*	*2\right	*	*
2E 2EE\	2Bn< 2G#X</	2bn\	-kor-	wszy-
4E 4AA\	4c< 4A</	4cc\	-nem	-scy
=7	=7	=7	=7	=7
2.G 2.GG\	4d 4Bn</	4dd\	czu-	bra-
.	4c 4A</	4cc\	-ciem	-cia
.	4d 4B</	4dd\	prze-	ie-
=8	=8	=8	=8	=8
[>2.C [2.CC\	[2.e [>2.c [2.G</	2.ee\	-ię-	-ste-
=9	=9	=9	=9	=9
2C] 2CC\]	2e] 2c] 2G</]	2ee\	-te	-śmy
4C/	4c/	4cc\	Pan	My
=10	=10	=10	=10	=10
2F\	2f/	2ff\	z gór-	wszy-
4AA/	4A/	4a/	-nej	-scy
=11	=11	=11	=11	=11
4BB-/	4B-/	4b-\	Nie-	Je-
4C/	4c/	4cc\	-ba	-go
4D/	4d/	4dd\	kra-	sy-
!!LO:LB:g=original
=12	=12	=12	=12	=12
2.C/	2.c/	2.cc\	-i-	-no-
=13	=13	=13	=13	=13
2AA/	2A/	2a/	-ny	-wie
4FF\	4A< 4F</	4a/	O-	Mi-
=14	=14	=14	=14	=14
2D\	2B-< 2F</	4b-\	-gła-	-ło-
.	.	4b-\	-sza	-ścią
4AA\	4c< 4F</	4cc\	na-	Mu
=15	=15	=15	=15	=15
4.BB-\	4.f 4.B-< 4.F</	4dd\	-u-	chwa-
.	.	8dd\	-ki	-łę
8r	8r	8r	.	.
4D-X\	8F</L	(>8f/L	Na-	Mu
.	8G</J	8g/J)	.	.
=16	=16	=16	=16	=16
*	*^	*	*	*
2C\	4A</	2F</	8a/	-u-	chwa-
.	.	.	8a/	-ki	-łę
.	4G</	.	(4g/	świę-	wznie-
4C 4CC\	4c< 4E</	4ryy	4cc/)	.	.
*	*v	*v	*	*	*
=17	=17	=17	=17	=17
2D 2DD\	2A< 2F</	2a/	-te	-smy
4D-X\	8F</L	(>8f/L	na-	Mu
.	8G</J	8g/J)	.	.
!!LO:LB:g=original
=18	=18	=18	=18	=18
*	*^	*	*	*
2C\	4A</	2F</	8a/	-u-	chwa-
.	.	.	8a/	-ki	-łę
.	4G</	.	(>4g/	świę-	wznie-
4C 4CC\	4c< 4E</	4ryy	4cc\)	.	.
*	*v	*v	*	*	*
=19	=19	=19	=19	=19
!!LO:TX:a:t=1. 2.
*>A1	*>A1	*>A1	*>A1	*>A1
2FF\	2F</	2f/	-te.	-śmy.
4D\	4Bn< 4F</	4r	.	.
=20:|!	=20:|!	=20:|!	=20:|!	=20:|!
!!LO:TX:a:t=3.
*>A2	*>A2	*>A2	*>A2	*>A2
!	!	!LO:TX:t=P:problem=brak taktu	!	!
2FF\	2F</	2.ryy	.	.
!	!LO:TX:a:t=Seque Credo	!	!	!
4ryy	4ryy	.	.	.
==	==	==	==	==
*-	*-	*-	*-	*-
!!!system-decoration: s1{(s2,s3)}
!!!RDF**kern: > = above
!!!RDF**kern: < = below
!!!ENC: Marta Lawrence
!!!END: 2021-06-27
!!!ENC: Marcin Jachim
!!!END: 2021-06-19
